X:112 
T:Let's Be Drinking
B:CRE5.056 (BÃÂÃÂÃÂÃÂ­mis ag ÃÂÃÂÃÂÃÂ³l)
F:file ID: cre.5/112lets_be
M:6/8
Q:160
R:jig
K:Am
B|G2A c2e|dcA c2A|G2A c2e|dcB A2G|
G2A c2e|dcA c2d|eaa ged|ecB A2:|
g|aba gag|fed ecA|aba gag|ede g3|
aba gag|fed ecA|efe ede|cAG A2 :|

%%%

